<?xml version="1.0" encoding="UTF-8"?>
<map version="1.10" tiledversion="1.10.2" orientation="isometric" renderorder="right-down" width="16" height="16" tilewidth="64" tileheight="32" infinite="0" nextlayerid="3" nextobjectid="1">
 <tileset firstgid="1" source="colony_tileset.tsx"/>
 <layer id="1" name="Ground_Iso" width="16" height="16">
  <data encoding="csv">
1,1,1,1,1,1,1,1,1,1,1,1,1,1,1,1,
1,2,2,2,2,2,2,2,2,2,2,2,2,2,2,1,
1,2,1,1,1,1,1,1,1,1,1,1,1,1,2,1,
1,2,1,3,3,3,3,3,3,3,3,3,3,1,2,1,
1,2,1,3,0,0,0,0,0,0,0,0,3,1,2,1,
1,2,1,3,0,1,1,1,1,1,1,0,3,1,2,1,
1,2,1,3,0,1,2,2,2,2,1,0,3,1,2,1,
1,2,1,3,0,1,2,3,3,2,1,0,3,1,2,1,
1,2,1,3,0,1,2,3,3,2,1,0,3,1,2,1,
1,2,1,3,0,1,2,2,2,2,1,0,3,1,2,1,
1,2,1,3,0,1,1,1,1,1,1,0,3,1,2,1,
1,2,1,3,0,0,0,0,0,0,0,0,3,1,2,1,
1,2,1,3,3,3,3,3,3,3,3,3,3,1,2,1,
1,2,1,1,1,1,1,1,1,1,1,1,1,1,2,1,
1,2,2,2,2,2,2,2,2,2,2,2,2,2,2,1,
1,1,1,1,1,1,1,1,1,1,1,1,1,1,1,1
</data>
 </layer>
</map>
